X: 20992
T: The ORIGINAL STOP WALTZ
O: French.
Q: "Allegretto."
%R: waltz
B: W. Hamilton "Universal Tune-Book" Vol. 2 Glasgow 1846 p.99 #1
S: http://s3-eu-west-1.amazonaws.com/itma.dl.printmaterial/book_pdfs/hamiltonvol2web.pdf
Z: 2016 John Chambers <jc:trillian.mit.edu>
M: 3/4
L: 1/8
K: D
% - - - - - - - - - - - - - - - - - - - - - - - - -
FG |\
(BA)(AE)(GB) | AffAAf | GeeGGe | FddFFG |\
BAAFGB | AffAAf | GeeGGe | d3 |]\
AFD |\
CEEGGc | ceeggb | baaff2 | BAAFD2 |
CEEGGc | ceeggb | afdfec | d3 |]\
Ade |\
f3 AFD | A3 Aef | g3 AEF | G3 agf |\
f3 faf | e3 ege | dcdfec | d4 |]
A2 |\
Acceeg | Addffa | EGGcce | FAAddf |\
z6 | z2zAde | f3 AFD | A3 Aef |\
g3 AEF | G3 agf | f3 faf | e3 ege |\
dcdfec | d3 |]
% - - - - - - - - - - - - - - - - - - - - - - - - -

%%sep 1 1 500
%%sep 1 1 500

